X: 1
T: My Darling Away
M: 6/8
L: 1/8
R: jig
K: Dmaj
~d3 dAA|BAB Bcd|AFA dAF|AGFE3|
~d3 dAA|BAB Bcd|AFA dAF|EDE D3:|
~B3~B3| BAF AFA|~B3 Bcd |cAF AFA|
~B3~B3| BAF AFA|dAF AGF| GED D3:|
